!!!OTL: Ostergesang. / nach kathol. Singbüchern
!!!ARE: Europa, Mitteleuropa, Deutschland
!!!SCT: A0554B
!!!TXL: @@DE, (@@LAT)
!!!YEM: Copyright 1995, estate of Helmut Schaffrath.
**kern	**text
*M3/1	*
*met(C3)	*
*clefC3	*
*k[b-]	*
*F:	*
=1	=1
1ryy	.
1ryy	.
{1f	Er-
=2	=2
0f	-ſtan-
1f	-den
=3	=3
0e	iſt
1e	der
=4	=4
0f	hei-
1d	-lig
=5	=5
0c}	Chriſt,
{1c	Al-
=6	=6
*lig	*
1.d	-le-
2e	.
*Xlig	*
1f	-lu-
=7	=7
0e	-ja,
1d	Al-
=8	=8
0c	-le-
1B-	-lu-
=9	=9
0A}	-ja!
{1G	der
=10	=10
0A	al-
1B-	-ler
=11	=11
0c	Welt
1B-	ein
=12	=12
!LO:TX:a:t=*	!
1A	Trö-
0G	-ſter
=13	=13
0F}	iſt,
{1B-	Al-
=14	=14
1A	-le-
1.G	.
2F	.
=15	=15
0F	.
1E	-lu-
=16	=16
0.F/ll}	-ja!
==	==
!!!GTL: Geistliche Volkslieder
!!!AGN: Romanze, Ballade, Lied, religioeses Lied
!! Coelner Gsgb 1526 S. 204
!!!ONB: ESAC (Essen Associative Code) Database: ALTDEU
!!!AMT: simple triple
!!!AIN: vox
!!!EED: Helmut Schaffrath
!!!EEV: 1.0
!!!RDF**kern: l = terminal long
!!!URL-scan: https://rosdok.uni-rostock.de/mcrviewer/recordIdentifier/rosdok_ppn738218359/iview2/phys_0735.iview2?x=-171.61612513683053&y=1660.444967216812&scale=0.5692057392176044&rotation=0&layout=singlePageLayout&logicalDiv=log_0021
!!!ENC: Anna Maria Matuszewska
!!!EEV: 2024/20/03
*-	*-
